X:1
T:Jack Williams
M:4/4
L:1/4
K:E
 B| c c/2B/2 G B| E3/2 C/2 E F| G cc/2-B/2 G| F2 z| B| cc/2-B/2 G B|\
 E3/2 C/2 E F/2F/2| G cc/2-B/2 G| F2 z||
